app/themes/uggwc_pro/assets/images/thema/Soziologie.svg

<svg width="16" height="16" viewBox="0 0 16 16" fill="none" xmlns="http://www.w3.org/2000/svg">
<g clip-path="url(#clip0_111_184)">
<path d="M11.4969 10.305C11.3525 10.4706 11.1912 10.6206 11 10.7316V11.4484C13.0787 11.7403 14.5 12.325 14.5 13C14.5 13.9666 11.59 14.75 8 14.75C4.41 14.75 1.5 13.9666 1.5 13C1.5 12.325 2.92125 11.7406 5 11.4484V10.7316C4.80875 10.6206 4.6475 10.4706 4.50313 10.305C1.83969 10.7919 0 11.8141 0 13C0 14.6569 3.58187 16 8 16C12.4181 16 16 14.6569 16 13C16 11.8141 14.1603 10.7919 11.4969 10.305ZM8 4C9.10469 4 10 3.10469 10 2C10 0.895313 9.10469 0 8 0C6.89531 0 6 0.895313 6 2C6 3.10469 6.89531 4 8 4ZM6 10V13C6 13.5522 6.44781 14 7 14H9C9.55219 14 10 13.5522 10 13V10C10.5522 10 11 9.55219 11 9V6C11 5.17156 10.3284 4.5 9.5 4.5H9.13125C8.78531 4.65719 8.40438 4.75 8 4.75C7.59562 4.75 7.21469 4.65719 6.86875 4.5H6.5C5.67156 4.5 5 5.17156 5 6V9C5 9.55219 5.44781 10 6 10Z" fill="#6E6CFF"/>
</g>
<defs>
<clipPath id="clip0_111_184">
<rect width="16" height="16" fill="white"/>
</clipPath>
</defs>
</svg>

<svg width="16" height="16" fill="none" xmlns="http://www.w3.org/2000/svg"><g clip-path="url(#a)"><path d="M11.497 10.305a2.002 2.002 0 0 1-.497.427v.716c2.079.292 3.5.877 3.5 1.552 0 .967-2.91 1.75-6.5 1.75S1.5 13.967 1.5 13c0-.675 1.421-1.26 3.5-1.552v-.716a2 2 0 0 1-.497-.427C1.84 10.792 0 11.815 0 13c0 1.657 3.582 3 8 3s8-1.343 8-3c0-1.186-1.84-2.208-4.503-2.695zM8 4a2 2 0 1 0 0-4 2 2 0 0 0 0 4zm-2 6v3a1 1 0 0 0 1 1h2a1 1 0 0 0 1-1v-3a1 1 0 0 0 1-1V6a1.5 1.5 0 0 0-1.5-1.5h-.369c-.346.157-.727.25-1.131.25s-.785-.093-1.131-.25H6.5A1.5 1.5 0 0 0 5 6v3a1 1 0 0 0 1 1z" fill="#6E6CFF"/></g><defs><clipPath id="a"><path fill="#fff" d="M0 0h16v16H0z"/></clipPath></defs></svg>
